public/icons/Sketchup-Dark.svg

<svg width="256" height="256" viewBox="0 0 256 256" fill="none" xmlns="http://www.w3.org/2000/svg">
<rect width="256" height="256" rx="60" fill="#242938"/>
<path d="M160.016 19L28 36.2041V37.2009L47.0704 151.19L74.1723 236.225L213.439 196.568L228 72.3478L160.016 19ZM156.477 32.1921L211.349 75.317L162.589 84.0853L132.828 53.113L49.9625 65.1816L42.4054 47.0874L156.477 32.1921ZM133.954 86.5013L162.196 121.732L116.415 131.477L105.474 112.644L63.3113 120.856L55.6685 100.339L133.954 86.5013ZM108.611 149.983L118.995 170.418L76.6799 180.955L69.1916 158.989L108.611 149.983Z" fill="#E7242D"/>
</svg>

<svg xmlns="http://www.w3.org/2000/svg" width="256" height="256" fill="none"><rect width="256" height="256" fill="#242938" rx="60"/><path fill="#E7242D" d="M160.016 19 28 36.204v.997L47.07 151.19l27.102 85.035 139.267-39.657L228 72.348zm-3.539 13.192 54.872 43.125-48.76 8.768-29.761-30.972-82.865 12.069-7.558-18.095zm-22.523 54.31 28.242 35.23-45.781 9.745-10.941-18.833-42.163 8.212-7.642-20.517zm-25.343 63.481 10.384 20.435-42.315 10.537-7.488-21.966z"/></svg>
